azure-patterns/svg-confidential-compute.svg

<svg xmlns="http://www.w3.org/2000/svg" viewBox="0 0 47 28">
                                
                            
<path d="M39.8912 13.8924C38.8585 13.8924 37.8498 14.1315 36.9612 14.5141C37.4175 13.3424 37.6576 12.0751 37.6576 10.7361C37.6817 4.80615 32.8544 0 26.8983 0C21.7588 0 17.4599 3.58668 16.3792 8.36892C15.3224 7.269 13.8094 6.57558 12.1763 6.57558C8.93408 6.57558 6.3163 9.1819 6.3163 12.4099C6.3163 12.4577 6.3163 12.5056 6.3163 12.5534C2.71385 13.2707 0 16.427 0 20.205C0 24.509 3.50639 28 7.82933 28C8.18958 28 39.5789 28 39.9152 28C43.8298 28 47 24.8437 47 20.9462C47 17.0487 43.8058 13.8924 39.8912 13.8924Z" fill="#0078D4"></path>
<path d="M26.6821 15.877V14.7771C26.6821 13.8207 26.0096 12.9838 25.073 12.7925C23.8241 12.5534 22.7194 13.5098 22.7194 14.7293V15.877H22.167V19.3441H27.2104V15.877H26.6821ZM23.4158 14.7771C23.4158 14.1793 23.8001 13.6294 24.3765 13.4859C25.2171 13.2707 25.9856 13.9163 25.9856 14.7293V15.877L23.4158 15.9009V14.7771Z" fill="white"></path>
<path d="M32.8544 12.7925V11.7643H30.9571V10.2101C30.9571 10.0188 30.789 9.85139 30.5969 9.85139H29.0598V7.9624H28.0271V9.85139H26.4661V7.9624H25.4334V9.85139H23.8723V7.9624H22.8396V9.85139H21.2785V7.9624H20.2458V9.85139H18.6848C18.4927 9.85139 18.3245 10.0188 18.3245 10.2101V11.7643H16.4272V12.7925H18.3245V14.3467H16.4272V15.3749H18.3245V16.9291H16.4272V17.9573H18.3245V19.5115H16.4272V20.5397H18.3245V22.0939C18.3245 22.2852 18.4927 22.4526 18.6848 22.4526H20.2458V24.3416H21.2785V22.4526H22.8396V24.3416H23.8723V22.4526H25.4334V24.3416H26.4661V22.4526H28.0271V24.3416H29.0598V22.4526H30.6209C30.813 22.4526 30.9812 22.2852 30.9812 22.0939V20.5397H32.8784V19.5115H30.9812V17.9573H32.8784V16.9291H30.9812V15.3749H32.8784V14.3467H30.9812V12.7925H32.8544ZM29.9244 21.4005H19.3813V10.9035H29.9244V21.4005Z" fill="white"></path>
<path d="M24.8809 17.6225V18.555H24.4966V17.6225C24.3285 17.5269 24.1844 17.3356 24.2084 17.1204C24.2325 16.9769 24.3285 16.8573 24.4726 16.7856C24.7848 16.6182 25.1451 16.8813 25.1451 17.216C25.1451 17.3834 25.049 17.5747 24.8809 17.6225Z" fill="#0078D4"></path>
</svg>

<svg xmlns="http://www.w3.org/2000/svg" viewBox="0 0 47 28"><path d="M39.891 13.892c-1.032 0-2.041.24-2.93.622.456-1.172.697-2.439.697-3.778C37.682 4.806 32.854 0 26.898 0c-5.14 0-9.438 3.587-10.519 8.369a5.854 5.854 0 0 0-4.203-1.793c-3.242 0-5.86 2.606-5.86 5.834v.143C2.714 13.271 0 16.427 0 20.205 0 24.509 3.506 28 7.83 28h32.085C43.83 28 47 24.844 47 20.946c0-3.897-3.194-7.054-7.109-7.054z" fill="#0078D4"/><path d="M26.682 15.877v-1.1c0-.956-.672-1.793-1.609-1.984a1.973 1.973 0 0 0-2.354 1.936v1.148h-.552v3.467h5.043v-3.467h-.528zm-3.266-1.1c0-.598.384-1.148.96-1.291.841-.215 1.61.43 1.61 1.243v1.148l-2.57.024v-1.124z" fill="#fff"/><path d="M32.854 12.793v-1.029h-1.897V10.21a.369.369 0 0 0-.36-.359H29.06V7.962h-1.033v1.89h-1.56v-1.89h-1.034v1.89h-1.56v-1.89H22.84v1.89h-1.561v-1.89h-1.033v1.89h-1.561a.369.369 0 0 0-.36.358v1.554h-1.898v1.029h1.898v1.554h-1.898v1.028h1.898v1.554h-1.898v1.028h1.898v1.555h-1.898v1.028h1.898v1.554c0 .191.168.359.36.359h1.56v1.889h1.034v-1.89h1.56v1.89h1.033v-1.89h1.561v1.89h1.033v-1.89h1.561v1.89h1.033v-1.89h1.56c.193 0 .361-.167.361-.358V20.54h1.897v-1.028h-1.897v-1.555h1.897V16.93h-1.897v-1.554h1.897v-1.028h-1.897v-1.554h1.873zm-2.93 8.608H19.381V10.903h10.543v10.498z" fill="#fff"/><path d="M24.88 17.622v.933h-.383v-.933c-.169-.095-.313-.286-.289-.502a.463.463 0 0 1 .265-.334c.312-.168.672.095.672.43 0 .167-.096.359-.264.406z" fill="#0078D4"/></svg>
